!!!COM: Scriabin, Alexander
!!!OTL@@FR: Prélude en mi majeur
!!!OTL@@EN: Prelude in E Major
!!!OPR@@FR: 5 Préludes
!!!OPR@@EN: 5 Preludes
!!!OPS: 15
!!!ONM: 3
!!!ODT: 1895
!!!AGN: Prelude
**kern	**kern	**dynam
*staff2	*staff1	*staff1/2
*Ipiano	*Ipiano	*
*clefF4	*clefG2	*
*k[f#c#g#d#]	*k[f#c#g#d#]	*
*E:	*E:	*
*M6/8	*M6/8	*
=1	=1	=1
8EEEL	8r	.
8BB 8G# 8e	8bL 8ee 8gg# 8eee	.
8G#J 8e 8b	8bJ 8ee 8gg# 8ddd#	.
8BL 8g# 8ee	8bL 8ee 8gg# 8ccc#	.
8E 8B 8b	8b 8ee 8gg#	.
8BBJ 8E 8e	8bJ 8ee 8aa	.
=2	=2	=2
8CCC#L 8CC#	8r	.
8C# 8B 8g#	8eL 8ee 8bb	.
8G#J 8e 8b	8g#J 8ee	.
*clefG2	*	*
8eL 8b 8ee	8g#L 8ee 8gg# 8bb	.
8G# 8e 8b	8g# 8ee 8gg# 8ccc#	.
*clefF4	*	*
8C#J 8B 8e	8bJ 8ee 8gg#	.
=3	=3	=3
8FFF#L 8FF#	8aL 8cc# 8ee 8aa	.
8C# 8A 8e	8ee 8aa 8ccc# 8ggg#	.
8AJ 8f# 8cc#	8eeJ 8aa 8ccc# 8fff#	.
*clefG2	*	*
8c#L 8a 8ee	8cc#L 8aa 8ccc# 8eee	.
8F# 8c# 8a	8a 8ee 8ccc#	.
*clefF4	*	*
8C#J 8A 8e	8cc#J 8ee 8aa	.
=4	=4	=4
8BBBL 8BB	8aL 8dd# 8gg#	.
8BB 8A 8d#	8a 8dd# 8ee#X	.
8F#J 8d# 8b	8aJ 8dd# 8ff#	.
*clefG2	*	*
8AL 8f# 8dd#	8bL 8ff# 8ccc#	.
*clefF4	*	*
8F# 8d# 8b	8a 8dd# 8bb	.
8BBJ 8A 8d#	8aJ 8dd# 8gg#	.
=5	=5	=5
8EEEL 8EE	8g#L 8ee	.
8BB 8G# 8e	8b 8ee 8gg# 8eee	.
8G#J 8e 8b	8bJ 8ee 8gg# 8ddd#	.
*clefG2	*	*
8BL 8g# 8ee	8bL 8ee 8gg# 8ccc#	.
*clefF4	*	*
8E 8B 8b	8b 8ee 8gg#	.
8BBJ 8E 8e	8bJ 8ee 8aa	.
=6	=6	=6
8CCC#L 8CC#	8r	.
8C# 8B 8g#	8eL 8ee 8bb	.
8G#J 8e 8b	8g#J 8ee	.
*clefG2	*	*
8eL 8b 8ee	8g#L 8ee 8gg# 8bb	.
8G# 8e 8b	8b 8ee 8aa#X	.
*clefF4	*	*
8C#J 8B 8e	8bJ 8ee 8gg#	.
=7	=7	=7
8FFF#L 8FF#	8bL 8ee 8ff#	.
8C# 8B 8f#	8b 8ff# 8eee	.
8C#J 8B 8f#	8bJ 8ff# 8ddd#	.
8EL 8c# 8f#	8a#XL 8ff# 8ccc#	.
8C# 8A#X 8e	8f# 8cc# 8aa#X	.
8FF#J 8E 8A#	8c#J 8a# 8ff#	.
=8	=8	=8
8BBBBL 8BBB	8c#L 8f# 8ee	.
8FF# 8E 8A#X	8c# 8f# 8cc#	.
8FF#J 8D# 8B	8BJ 8f# 8dd#	.
4D# 4B 4f#	8d#L 8b 8gg#	.
.	8d# 8b 8ff#	.
8FF# 8F#	8d#J 8b 8dd#	.
=9	=9	=9
8BBBL 8BB	8r	.
8BB 8F# 8dn	8dnL 8b 8ff#	.
8F#J 8d 8a	8f#J 8b 8ddn	.
8BBBL 8BB	8r	.
8E 8d 8a	8f#L 8dd 8ff#	.
8EJ 8d 8g#	8eJ 8dd 8gg#	.
=10	=10	=10
8AAAL 8AA	8r	.
8E 8dn 8gn	8eL 8ddn 8aa	.
8EJ 8d 8g	8eJ 8dd 8ee	.
8GnL 8d 8g	8eL 8dd 8bb	.
8AA 8G 8c#	8c# 8a 8ee	.
8GJ 8c# 8a	8c#J 8a 8ee#X	.
=11	=11	=11
8DDnL 8Dn	8dnL 8a 8ff#	.
8D 8A 8f#	8f# 8ddn 8aa	.
8AJ 8f# 8cc#	8aJ 8dd 8ff#	.
8DDL 8D	8r	.
8G# 8f# 8cc#	8aL 8ff# 8aa	.
8G#J 8f# 8b	8g#J 8ff# 8bb	.
=12	=12	=12
8CC#L 8C#	8r	.
8G# 8f# 8b	8g#L 8ff# 8ccc#	.
8G#J 8f# 8b	8g#J 8ff# 8gg#	.
8BL 8f# 8b	8g#L 8ff# 8dddn	.
8C# 8B 8e	8e 8cc# 8ff##X	.
8BJ 8e#X	8e#XJ 8cc# 8gg#	.
=13	=13	=13
8FF#L 8F#	8f#L 8cc# 8aa#X	.
8F# 8e 8a#X	8a#X 8ff# 8ccc#	.
8F#J 8e 8a#	8a#J 8ff# 8dddn	.
8BBBL 8BB	8r	.
8F# 8e 8an	8anL 8ff# 8ccc#	.
8F#J 8dn 8a	8aJ 8ddn 8ff#	.
=14	=14	=14
8EEL 8E	8r	.
8E 8dn 8a	8aL 8ee 8bb	.
8EJ 8d 8g#	8g#J 8ee 8ccc#	.
8AAAL 8AA	8g#L 8ee 8bb	.
8E 8c# 8a	8a 8cc# 8aa	.
8EJ 8c# 8a	8eJ 8cc#	.
=15	=15	=15
8AAA#XL 8AA#X	8dd#XL	.
8E 8c# 8g#	8e 8cc# 8ee	.
8EJ 8c# 8f#	8eJ 8cc# 8ff#	.
8BBBL 8BB	8ff##XL	.
8E 8B 8e	8b 8ee 8gg#	.
8BBJ 8G# 8e	8bJ 8ee 8bb	.
=16	=16	=16
8BBBBL 8BBB	8ddd#L	.
8F# 8e 8b	8b 8gg# 8ccc#	.
8F#J 8e 8a	8aJ 8cc# 8ff#	.
8F#L 8c# 8a	8aL 8ee 8aa	.
8BB 8F# 8c#	8e 8a 8cc#	.
8BBJ 8F# 8B	8d#J 8a 8dd#	.
=17	=17	=17
8EEEL 8EE	8BL 8e 8g# 8ee	.
8BB 8G# 8e	8b 8ee 8gg# 8eee	.
8G#J 8e 8b	8bJ 8ee 8gg# 8ddd#	.
*clefG2	*	*
4B 4g# 4ee	8bL 8ee 8gg# 8ccc#	.
.	8b 8ee 8gg#	.
*clefF4	*	*
8BB 8B	8bJ 8ee 8aa	.
=18	=18	=18
8EEEL 8EE	8r	.
8BB 8F# 8e	8aL 8ee 8bb	.
8F#J 8e 8a	8aJ 8ee 8ff#	.
*clefG2	*	*
8c#L 8f# 8cc#	8aL 8ee 8bb	.
*clefF4	*	*
8F# 8e 8a	8a 8ee 8ccc#	.
8BBJ 8A 8d#	8aJ 8dd# 8bb	.
=19	=19	=19
8EEEL 8EE	8r	.
[8qBB/	.	.
8BB]	8BL 8e 8g# 8ee	.
[8qG#/	.	.
8G#J]	8BJ 8e 8g# 8dd#	.
[8qe/	.	.
4e]	8BL 8e 8g# 8cc#	.
.	8B 8e 8g#	.
8BB	8BJ 8e 8a	.
=20	=20	=20
8EEEL 8EE	8r	.
[8qBB/	.	.
8BB]	8AL 8e 8b	.
[8qF#/	.	.
8F#J]	8AJ 8e 8f#	.
[8qc#/	.	.
8c#L]	8AL 8e 8b	.
8F#	8A 8e 8cc#	.
8BBJ	8AJ 8d# 8b	.
=21	=21	=21
8EEL 8E	8r	.
8E 8G# 8e	8BL 8g#	.
8D#J 8G# 8e	8BJ 8g# 8b	.
8C#L 8G# 8e	8BL 8g# 8ee	.
8BB 8G# 8e	8e 8b 8gg#	.
8GG#J 8E 8B	8g#J 8ee 8bb	.
=22	=22	=22
4.EE 4.BB 4.G#	4.b 4.gg# 4.eee	.
4r	4r	.
8r	8r	.
==	==	==
*-	*-	*-
!!!system-decoration: {(*)}
!!!ENC: Bryan Jacob Bell
!!!END: November 2021 to April 2022
!!!PED: Konstantin Igumnov and Yakov Milstein
!!!PTL: A.N. Skryabin: Polnoe sobranie sochinenii dlia fortepiano (Muzgiz)
